svg/u1fab3.svg

<svg viewBox="0 0 128 128" xmlns="http://www.w3.org/2000/svg">
  <g>
    <g>
      <linearGradient id="SVGID_1_" gradientTransform="matrix(0.9905 -0.1374 0.1374 0.9905 -74.0776 -112.6475)" gradientUnits="userSpaceOnUse" x1="98.1489" x2="107.7643" y1="210.7351" y2="200.8598">
        <stop offset="0.225" stop-color="#814D3C"/>
        <stop offset="1" stop-color="#51362D"/>
      </linearGradient>
      <path d="M78.4,73.18L50.21,48.36l-0.9,0.62L42.29,60.2c0,0-6.29,2.84-7.05,2.65 c-0.75-0.19-9.46-9.52-10.68-9.93c-1.22-0.41-4.7,0.14-6.48,0.46c-1.42,0.26-6.11,0.9-5.72,2.76c0.22,1.06,2.05,1.68,4.55,1.33 c2.29-0.32,4.43-0.54,4.43-0.54s10.54,11.04,12.21,11.53c1.67,0.5,7.74-0.78,10.39-1.59c2.65-0.8,8.87-3.12,8.87-3.12l-2.65,3.93 c0,0-9.81,8.41-10.09,10.05c-0.28,1.64,5.56,14.93,5.78,16.5c0.22,1.57-0.73,5.19-0.59,9.38c0.15,4.19-0.17,10.65,1.9,9.48 c1.35-0.77,2.1-8.43,2.64-12.43c0.37-2.77,0.84-6.51,0.73-8.39c-0.11-1.87-3.68-11.84-3.75-12.34c-0.07-0.5,6.32-3.71,7.07-4.54 c0.76-0.83,2.54-3.7,2.54-3.7l3.1,4.51c0,0-4.97,13.98-4.69,15.97c0.28,2,8.77,7.64,10.78,9.54c2.01,1.9,2.92,3.79,3.9,6.14 c1.41,3.37,3.97,8.17,5.4,10.08c1.31,1.76,5.23,4.76,6.52,5.08c2.63,0.65-1.95-6.22-4.84-12.36c-2.89-6.14-3.82-9.72-4.6-11.14 c-0.78-1.42-9.32-7.41-9.44-8.27c-0.12-0.86,4.63-9.13,4.63-9.13L78.4,73.18z" fill="url(#SVGID_1_)"/>
      <linearGradient id="SVGID_2_" gradientTransform="matrix(0.9884 -0.1521 0.1521 0.9884 -74.8694 -112.808)" gradientUnits="userSpaceOnUse" x1="68.8262" x2="68.8262" y1="161.7572" y2="220.9881">
        <stop offset="0.2013" stop-color="#CF7756"/>
        <stop offset="0.2529" stop-color="#C87354"/>
        <stop offset="0.5534" stop-color="#A15E47"/>
        <stop offset="0.7943" stop-color="#8A523F"/>
        <stop offset="0.9438" stop-color="#814D3C"/>
      </linearGradient>
      <path d="M36.75,41.47c0,0-0.64,2.49-1.51,3.97c-0.14,0.25-12.56-8.68-21.29-3.25 c-13.48,8.37,1.56,33.8,0.01,45.79c-1.08,8.37-3.95,10.19-4.81,9.77c-1.36-0.66,2.77-4.12,1.36-15.16 C8.91,70.11-2.36,49.41,10.35,39.98C22.73,30.79,36.75,41.47,36.75,41.47z" fill="url(#SVGID_2_)"/>
    </g>
    <g>
      <linearGradient id="SVGID_3_" gradientTransform="matrix(-0.1374 0.9905 0.9905 0.1374 208.7247 -395.4498)" gradientUnits="userSpaceOnUse" x1="460.2201" x2="469.8355" y1="-63.101" y2="-72.9763">
        <stop offset="0.2284" stop-color="#814D3C"/>
        <stop offset="1" stop-color="#51362D"/>
      </linearGradient>
      <path d="M73.55,78.02L48.73,49.84l0.62-0.9l11.22-7.02c0,0,2.84-6.29,2.65-7.05 c-0.19-0.75-9.52-9.46-9.93-10.68c-0.41-1.22,0.14-4.7,0.46-6.48c0.26-1.42,0.9-6.11,2.76-5.72c1.06,0.22,1.68,2.05,1.33,4.55 c-0.32,2.29-0.54,4.43-0.54,4.43s11.04,10.54,11.53,12.21c0.5,1.67-0.78,7.74-1.59,10.39c-0.8,2.65-3.12,8.87-3.12,8.87l3.93-2.65 c0,0,8.41-9.81,10.05-10.09c1.64-0.28,14.93,5.56,16.5,5.78s5.19-0.73,9.38-0.59c4.19,0.15,10.65-0.17,9.48,1.9 c-0.77,1.35-8.43,2.1-12.43,2.64c-2.77,0.37-6.51,0.84-8.39,0.73c-1.87-0.11-11.84-3.68-12.34-3.75c-0.5-0.07-3.71,6.32-4.54,7.07 c-0.83,0.76-3.7,2.54-3.7,2.54l4.51,3.1c0,0,13.98-4.97,15.97-4.69c2,0.28,7.64,8.77,9.54,10.78c1.9,2.01,3.79,2.92,6.14,3.9 c3.37,1.41,8.17,3.97,10.08,5.4c1.76,1.31,4.76,5.23,5.08,6.52c0.65,2.63-6.22-1.95-12.36-4.84c-6.14-2.89-9.72-3.82-11.14-4.6 c-1.42-0.78-7.41-9.32-8.27-9.44c-0.86-0.12-9.13,4.63-9.13,4.63L73.55,78.02z" fill="url(#SVGID_3_)"/>
      <linearGradient id="SVGID_4_" gradientTransform="matrix(-0.1521 0.9884 0.9884 0.1521 208.5643 -396.2417)" gradientUnits="userSpaceOnUse" x1="434.9118" x2="434.9118" y1="-106.6886" y2="-47.4577">
        <stop offset="0.2013" stop-color="#CF7756"/>
        <stop offset="0.253" stop-color="#C87354"/>
        <stop offset="0.5539" stop-color="#A15E47"/>
        <stop offset="0.7952" stop-color="#8A523F"/>
        <stop offset="0.9449" stop-color="#814D3C"/>
      </linearGradient>
      <path d="M41.84,36.38c0,0,2.49-0.64,3.97-1.51c0.25-0.14-8.68-12.56-3.25-21.29 c8.37-13.48,33.8,1.56,45.79,0.01c8.37-1.08,10.19-3.95,9.77-4.81C97.46,7.4,94,11.54,82.96,10.13 C70.48,8.54,49.79-2.74,40.35,9.98C31.16,22.36,41.84,36.38,41.84,36.38z" fill="url(#SVGID_4_)"/>
    </g>
    <g>
      <path d="M105.69,118.48c-0.63,0.08-1.25-0.29-1.47-0.9l-2.82-7.87c-0.26-0.72,0.12-1.51,0.83-1.77 c0.72-0.26,1.51,0.12,1.77,0.83l2.82,7.87c0.26,0.72-0.12,1.51-0.83,1.77C105.89,118.45,105.79,118.47,105.69,118.48z" fill="#CF7756"/>
      <path d="M118.94,105.24c0.08-0.63-0.29-1.25-0.9-1.47l-7.87-2.82c-0.72-0.26-1.51,0.12-1.77,0.83 c-0.26,0.72,0.12,1.51,0.83,1.77l7.87,2.82c0.72,0.26,1.51-0.12,1.77-0.83C118.9,105.43,118.93,105.34,118.94,105.24z" fill="#CF7756"/>
    </g>
    <g>
      <path d="M42.78,57.91c0,0-5.38-4.9-7.04-9.18c-1.46-3.77-1.8-7.46,2.12-11.32 c4.36-4.29,8.78-3.66,13.15-1.61c3.53,1.65,7.98,6,7.98,6L42.78,57.91z" fill="#CF7756"/>
      <ellipse cx="38.95" cy="45.82" fill="#2F2F2F" rx="2.3" ry="2.75" transform="matrix(0.9003 -0.4353 0.4353 0.9003 -16.0636 21.5229)"/>
      <ellipse cx="46.45" cy="38.13" fill="#2F2F2F" rx="2.3" ry="2.75" transform="matrix(0.4423 -0.8969 0.8969 0.4423 -8.2926 62.9333)"/>
      <path d="M42.56,37.68c-0.16-1.08-2.65-0.87-3.9,0.41c-1.25,1.29-1.12,3.86-0.03,3.91 c0.91,0.04,0.77-1.53,1.67-2.44C41.2,38.67,42.69,38.58,42.56,37.68z" fill="#2F2F2F"/>
    </g>
    <g>
      <path d="M62.89,43.2c-6.75-5.69-14.32-3.02-18.32,0.91c-3.94,4.01-6.6,11.57-0.91,18.32 c6.59,7.83,12.43,6.12,12.43,6.12l8.23-4.69l4.69-8.23C69.01,55.63,70.71,49.79,62.89,43.2z" fill="#734434"/>
      <path d="M59.99,62.34c-5.96-1.32-11.58,1.29-13.94,2.62c5.6,5.02,10.13,3.7,10.13,3.7l6.85-4.3 C63.03,64.36,61.9,62.77,59.99,62.34z" fill="#CF7756"/>
      <path d="M62.8,59.53c-1.32-5.96,1.29-11.58,2.62-13.94c5.02,5.6,3.7,10.13,3.7,10.13l-4.3,6.85 C64.81,62.58,63.22,61.44,62.8,59.53z" fill="#CF7756"/>
    </g>
    <g>
      <linearGradient id="SVGID_5_" gradientTransform="matrix(0.7071 -0.7071 0.7071 0.7071 -34.0178 60.8639)" gradientUnits="userSpaceOnUse" x1="67.3549" x2="67.3549" y1="124.7704" y2="69.9619">
        <stop offset="0.3189" stop-color="#CF7756"/>
        <stop offset="1" stop-color="#814D3C"/>
      </linearGradient>
      <path d="M78.09,56.62c-3.19-2.33-6.98-2.22-6.98-2.22s-3.9,6.85-6.63,9.72 c-2.87,2.73-9.72,6.63-9.72,6.63s-0.11,3.79,2.22,6.98c2.33,3.19,8.49,9.12,13.42,13.32c5.11,4.35,30.82,28.6,40.21,19.21 s-14.86-35.1-19.21-40.21C87.21,65.1,81.28,58.95,78.09,56.62z" fill="url(#SVGID_5_)"/>
      <g>
        <linearGradient id="SVGID_6_" gradientTransform="matrix(-0.0253 0.9997 0.9997 0.0253 146.6007 -358.7425)" gradientUnits="userSpaceOnUse" x1="439.8609" x2="425.0819" y1="-54.7458" y2="-72.0344">
          <stop offset="0.4957" stop-color="#734434"/>
          <stop offset="1" stop-color="#51362D"/>
        </linearGradient>
        <path d="M96.93,105.98c0-0.05,0-0.11,0-0.16c-0.02-0.2-1.06-7.14-4.95-19.32 c-1.48-4.63-6.25-14.35-11.17-20.73c-4.88-6.34-9.78-10.03-9.98-10.19c-0.68-0.51-1.64-0.37-2.15,0.31 c-0.51,0.68-0.37,1.64,0.31,2.15c0.05,0.04,4.78,3.62,9.39,9.6c4.5,5.84,9.13,15.28,10.7,19.86c3.61,10.49,4.79,18.51,4.79,18.55 c0.07,0.84,0.81,1.47,1.65,1.41C96.3,107.4,96.91,106.75,96.93,105.98z" fill="url(#SVGID_6_)"/>
      </g>
      <g>
        <linearGradient id="SVGID_7_" gradientTransform="matrix(0.9997 -0.0253 0.0253 0.9997 -93.4809 -118.661)" gradientUnits="userSpaceOnUse" x1="168.9387" x2="154.1597" y1="202.7988" y2="185.5102">
          <stop offset="0.4957" stop-color="#734434"/>
          <stop offset="1" stop-color="#51362D"/>
        </linearGradient>
        <path d="M106.92,95.98c-0.05,0-0.11,0-0.16,0c-0.2-0.02-7.14-1.06-19.32-4.95 c-4.63-1.48-14.35-6.25-20.73-11.17c-6.34-4.88-10.03-9.78-10.19-9.98c-0.51-0.68-0.37-1.64,0.31-2.15 c0.68-0.51,1.64-0.37,2.15,0.31c0.04,0.05,3.62,4.78,9.6,9.39c5.84,4.5,15.28,9.13,19.86,10.7c10.49,3.61,18.51,4.79,18.55,4.79 c0.84,0.07,1.47,0.81,1.41,1.65C108.35,95.36,107.7,95.96,106.92,95.98z" fill="url(#SVGID_7_)"/>
      </g>
    </g>
    <path d="M68.83,51.86c0,0-1.96,6.94-5.5,10.77c-3.33,3.61-10.44,6.28-10.44,6.28s-0.01,0.91,0.34,1.55 c0.35,0.63,0.97,1.26,1.71,1.33c1.08,0.11,8.05-2.94,11.87-7.57s5.95-10.52,3.79-11.89C69.42,51.59,68.83,51.86,68.83,51.86z" fill="#51362D"/>
  </g>
</svg>

<svg viewBox="0 0 128 128" xmlns="http://www.w3.org/2000/svg">
  <defs>
    <linearGradient id="SVGID_1_" gradientTransform="matrix(0.9905 -0.1374 0.1374 0.9905 0 0)" gradientUnits="userSpaceOnUse" x1="40.251009" x2="49.866409" y1="88.975716" y2="79.100416">
      <stop offset="0.225" stop-color="#814D3C"/>
      <stop offset="1" stop-color="#51362D"/>
    </linearGradient>
    <linearGradient id="SVGID_2_" gradientTransform="matrix(0.9884 -0.1521 0.1521 0.9884 0 0)" gradientUnits="userSpaceOnUse" x1="11.987302" x2="11.987302" y1="38.878612" y2="98.109512">
      <stop offset="0.2013" stop-color="#CF7756"/>
      <stop offset="0.2529" stop-color="#C87354"/>
      <stop offset="0.5534" stop-color="#A15E47"/>
      <stop offset="0.7943" stop-color="#8A523F"/>
      <stop offset="0.9438" stop-color="#814D3C"/>
    </linearGradient>
    <linearGradient id="SVGID_3_" gradientTransform="matrix(-0.1374 0.9905 0.9905 0.1374 0 0)" gradientUnits="userSpaceOnUse" x1="39.835272" x2="49.450672" y1="89.310736" y2="79.435436">
      <stop offset="0.2284" stop-color="#814D3C"/>
      <stop offset="1" stop-color="#51362D"/>
    </linearGradient>
    <linearGradient id="SVGID_4_" gradientTransform="matrix(-0.1521 0.9884 0.9884 0.1521 0 0)" gradientUnits="userSpaceOnUse" x1="11.573071" x2="11.573071" y1="39.177931" y2="98.408831">
      <stop offset="0.2013" stop-color="#CF7756"/>
      <stop offset="0.253" stop-color="#C87354"/>
      <stop offset="0.5539" stop-color="#A15E47"/>
      <stop offset="0.7952" stop-color="#8A523F"/>
      <stop offset="0.9449" stop-color="#814D3C"/>
    </linearGradient>
    <linearGradient id="SVGID_5_" gradientTransform="matrix(0.7071 -0.7071 0.7071 0.7071 0 0)" gradientUnits="userSpaceOnUse" x1="0.262763" x2="0.262763" y1="143.753641" y2="88.945141">
      <stop offset="0.3189" stop-color="#CF7756"/>
      <stop offset="1" stop-color="#814D3C"/>
    </linearGradient>
    <linearGradient id="SVGID_6_" gradientTransform="matrix(-0.0253 0.9997 0.9997 0.0253 0 0)" gradientUnits="userSpaceOnUse" x1="77.531583" x2="62.752583" y1="82.729211" y2="65.440611">
      <stop offset="0.4957" stop-color="#734434"/>
      <stop offset="1" stop-color="#51362D"/>
    </linearGradient>
    <linearGradient id="SVGID_7_" gradientTransform="matrix(0.9997 -0.0253 0.0253 0.9997 0 0)" gradientUnits="userSpaceOnUse" x1="78.491602" x2="63.712602" y1="81.813193" y2="64.524593">
      <stop offset="0.4957" stop-color="#734434"/>
      <stop offset="1" stop-color="#51362D"/>
    </linearGradient>
  </defs>
  <path d="M78.4,73.18 L50.21,48.36 L49.31,48.98 L42.29,60.2 C42.29,60.2 36,63.04 35.24,62.85 C34.49,62.66 25.78,53.33 24.56,52.92 C23.34,52.51 19.86,53.06 18.08,53.38 C16.66,53.64 11.97,54.28 12.36,56.14 C12.58,57.2 14.41,57.82 16.91,57.47 C19.2,57.15 21.34,56.93 21.34,56.93 C21.34,56.93 31.88,67.97 33.55,68.46 C35.22,68.96 41.29,67.68 43.94,66.87 C46.59,66.07 52.81,63.75 52.81,63.75 L50.16,67.68 C50.16,67.68 40.35,76.09 40.07,77.73 C39.79,79.37 45.63,92.66 45.85,94.23 C46.07,95.8 45.12,99.42 45.26,103.61 C45.41,107.8 45.09,114.26 47.16,113.09 C48.51,112.32 49.26,104.66 49.8,100.66 C50.17,97.89 50.64,94.15 50.53,92.27 C50.42,90.4 46.85,80.43 46.78,79.93 C46.71,79.43 53.1,76.22 53.85,75.39 C54.61,74.56 56.39,71.69 56.39,71.69 L59.49,76.2 C59.49,76.2 54.52,90.18 54.8,92.17 C55.08,94.17 63.57,99.81 65.58,101.71 C67.59,103.61 68.5,105.5 69.48,107.85 C70.89,111.22 73.45,116.02 74.88,117.93 C76.19,119.69 80.11,122.69 81.4,123.01 C84.03,123.66 79.45,116.79 76.56,110.65 C73.67,104.51 72.74,100.93 71.96,99.51 C71.18,98.09 62.64,92.1 62.52,91.24 C62.4,90.38 67.15,82.11 67.15,82.11 L78.4,73.18 Z" fill="url(#SVGID_1_)"/>
  <path d="M36.75,41.47 C36.75,41.47 36.11,43.96 35.24,45.44 C35.1,45.69 22.68,36.76 13.95,42.19 C0.47,50.56 15.51,75.99 13.96,87.98 C12.88,96.35 10.01,98.17 9.15,97.75 C7.79,97.09 11.92,93.63 10.51,82.59 C8.91,70.11 -2.36,49.41 10.35,39.98 C22.73,30.79 36.75,41.47 36.75,41.47 Z" fill="url(#SVGID_2_)"/>
  <path d="M73.55,78.02 L48.73,49.84 L49.35,48.94 L60.57,41.92 C60.57,41.92 63.41,35.63 63.22,34.87 C63.03,34.12 53.7,25.41 53.29,24.19 C52.88,22.97 53.43,19.49 53.75,17.71 C54.01,16.29 54.65,11.6 56.51,11.99 C57.57,12.21 58.19,14.04 57.84,16.54 C57.52,18.83 57.3,20.97 57.3,20.97 C57.3,20.97 68.34,31.51 68.83,33.18 C69.33,34.85 68.05,40.92 67.24,43.57 C66.44,46.22 64.12,52.44 64.12,52.44 L68.05,49.79 C68.05,49.79 76.46,39.98 78.1,39.7 C79.74,39.42 93.03,45.26 94.6,45.48 C96.17,45.7 99.79,44.75 103.98,44.89 C108.17,45.04 114.63,44.72 113.46,46.79 C112.69,48.14 105.03,48.89 101.03,49.43 C98.26,49.8 94.52,50.27 92.64,50.16 C90.77,50.05 80.8,46.48 80.3,46.41 C79.8,46.34 76.59,52.73 75.76,53.48 C74.93,54.24 72.06,56.02 72.06,56.02 L76.57,59.12 C76.57,59.12 90.55,54.15 92.54,54.43 C94.54,54.71 100.18,63.2 102.08,65.21 C103.98,67.22 105.87,68.13 108.22,69.11 C111.59,70.52 116.39,73.08 118.3,74.51 C120.06,75.82 123.06,79.74 123.38,81.03 C124.03,83.66 117.16,79.08 111.02,76.19 C104.88,73.3 101.3,72.37 99.88,71.59 C98.46,70.81 92.47,62.27 91.61,62.15 C90.75,62.03 82.48,66.78 82.48,66.78 L73.55,78.02 Z" fill="url(#SVGID_3_)"/>
  <path d="M41.84,36.38 C41.84,36.38 44.33,35.74 45.81,34.87 C46.06,34.73 37.13,22.31 42.56,13.58 C50.93,0.1 76.36,15.14 88.35,13.59 C96.72,12.51 98.54,9.64 98.12,8.78 C97.46,7.4 94,11.54 82.96,10.13 C70.48,8.54 49.79,-2.74 40.35,9.98 C31.16,22.36 41.84,36.38 41.84,36.38 Z" fill="url(#SVGID_4_)"/>
  <path d="M105.69,118.48 C105.06,118.56 104.44,118.19 104.22,117.58 L101.4,109.71 C101.14,108.99 101.52,108.2 102.23,107.94 C102.95,107.68 103.74,108.06 104,108.77 L106.82,116.64 C107.08,117.36 106.7,118.15 105.99,118.41 C105.89,118.45 105.79,118.47 105.69,118.48 Z" fill="#CF7756"/>
  <path d="M118.94,105.24 C119.02,104.61 118.65,103.99 118.04,103.77 L110.17,100.95 C109.45,100.69 108.66,101.07 108.4,101.78 C108.14,102.5 108.52,103.29 109.23,103.55 L117.1,106.37 C117.82,106.63 118.61,106.25 118.87,105.54 C118.9,105.43 118.93,105.34 118.94,105.24 Z" fill="#CF7756"/>
  <path d="M42.78,57.91 C42.78,57.91 37.4,53.01 35.74,48.73 C34.28,44.96 33.94,41.27 37.86,37.41 C42.22,33.12 46.64,33.75 51.01,35.8 C54.54,37.45 58.99,41.8 58.99,41.8 L42.78,57.91 Z" fill="#CF7756"/>
  <path d="M41.019,44.819 C41.68,46.186 41.289,47.743 40.146,48.296 C39.002,48.848 37.539,48.188 36.878,46.821 C36.217,45.454 36.608,43.897 37.751,43.344 C38.895,42.791 40.358,43.451 41.019,44.819 Z" fill="#2F2F2F"/>
  <path d="M47.468,36.074 C48.831,36.746 49.479,38.214 48.918,39.354 C48.356,40.493 46.796,40.872 45.434,40.2 C44.072,39.528 43.423,38.06 43.985,36.921 C44.546,35.782 46.106,35.403 47.468,36.074 Z" fill="#2F2F2F"/>
  <path d="M42.56,37.68 C42.4,36.6 39.91,36.81 38.66,38.09 C37.41,39.38 37.54,41.95 38.63,42 C39.54,42.04 39.4,40.47 40.3,39.56 C41.2,38.67 42.69,38.58 42.56,37.68 Z" fill="#2F2F2F"/>
  <path d="M62.89,43.2 C56.14,37.51 48.57,40.18 44.57,44.11 C40.63,48.12 37.97,55.68 43.66,62.43 C50.25,70.26 56.09,68.55 56.09,68.55 L64.32,63.86 L69.01,55.63 C69.01,55.63 70.71,49.79 62.89,43.2 Z" fill="#734434"/>
  <path d="M59.99,62.34 C54.03,61.02 48.41,63.63 46.05,64.96 C51.65,69.98 56.18,68.66 56.18,68.66 L63.03,64.36 C63.03,64.36 61.9,62.77 59.99,62.34 Z" fill="#CF7756"/>
  <path d="M62.8,59.53 C61.48,53.57 64.09,47.95 65.42,45.59 C70.44,51.19 69.12,55.72 69.12,55.72 L64.82,62.57 C64.81,62.58 63.22,61.44 62.8,59.53 Z" fill="#CF7756"/>
  <path d="M78.09,56.62 C74.9,54.29 71.11,54.4 71.11,54.4 C71.11,54.4 67.21,61.25 64.48,64.12 C61.61,66.85 54.76,70.75 54.76,70.75 C54.76,70.75 54.65,74.54 56.98,77.73 C59.31,80.92 65.47,86.85 70.4,91.05 C75.51,95.4 101.22,119.65 110.61,110.26 C120,100.87 95.75,75.16 91.4,70.05 C87.21,65.1 81.28,58.95 78.09,56.62 Z" fill="url(#SVGID_5_)"/>
  <path d="M96.93,105.98 C96.93,105.93 96.93,105.87 96.93,105.82 C96.91,105.62 95.87,98.68 91.98,86.5 C90.5,81.87 85.73,72.15 80.81,65.77 C75.93,59.43 71.03,55.74 70.83,55.58 C70.15,55.07 69.19,55.21 68.68,55.89 C68.17,56.57 68.31,57.53 68.99,58.04 C69.04,58.08 73.77,61.66 78.38,67.64 C82.88,73.48 87.51,82.92 89.08,87.5 C92.69,97.99 93.87,106.01 93.87,106.05 C93.94,106.89 94.68,107.52 95.52,107.46 C96.3,107.4 96.91,106.75 96.93,105.98 Z" fill="url(#SVGID_6_)"/>
  <path d="M106.92,95.98 C106.87,95.98 106.81,95.98 106.76,95.98 C106.56,95.96 99.62,94.92 87.44,91.03 C82.81,89.55 73.09,84.78 66.71,79.86 C60.37,74.98 56.68,70.08 56.52,69.88 C56.01,69.2 56.15,68.24 56.83,67.73 C57.51,67.22 58.47,67.36 58.98,68.04 C59.02,68.09 62.6,72.82 68.58,77.43 C74.42,81.93 83.86,86.56 88.44,88.13 C98.93,91.74 106.95,92.92 106.99,92.92 C107.83,92.99 108.46,93.73 108.4,94.57 C108.35,95.36 107.7,95.96 106.92,95.98 Z" fill="url(#SVGID_7_)"/>
  <path d="M68.83,51.86 C68.83,51.86 66.87,58.8 63.33,62.63 C60,66.24 52.89,68.91 52.89,68.91 C52.89,68.91 52.88,69.82 53.23,70.46 C53.58,71.09 54.2,71.72 54.94,71.79 C56.02,71.9 62.99,68.85 66.81,64.22 C70.63,59.59 72.76,53.7 70.6,52.33 C69.42,51.59 68.83,51.86 68.83,51.86 Z" fill="#51362D"/>
</svg>
